assets/images/skills/vs-code.svg

<svg fill="#ffffff" xmlns="http://www.w3.org/2000/svg"  viewBox="0 0 50 50" width="50px" height="50px"><path d="M 35.5 2 C 34.866 2 34.274437 2.2413418 33.832031 2.6386719 C 33.825631 2.6448319 33.739511 2.7298469 33.707031 2.765625 C 33.673791 2.802239 33.629402 2.854329 33.570312 2.9199219 C 33.452143 3.0511082 33.280995 3.2392971 33.066406 3.4785156 C 32.637228 3.9569526 32.030002 4.6367416 31.302734 5.4492188 C 29.848199 7.074173 27.917029 9.2335577 25.988281 11.390625 L 18.919922 19.296875 C 17.159139 17.866935 15.192599 16.270881 13.789062 15.130859 C 12.45704 14.048925 11.344871 13.145586 10.560547 12.507812 C 10.168385 12.188927 9.8582026 11.935839 9.6445312 11.761719 C 9.5376956 11.674659 9.4548777 11.606726 9.3984375 11.560547 C 9.3739425 11.540507 9.3556719 11.527035 9.3417969 11.515625 L 9.3398438 11.513672 C 9.3398438 11.513672 9.3378906 11.513672 9.3378906 11.513672 C 8.9855648 11.197609 8.5105802 11 8 11 C 7.6109517 11 7.5065274 11.07872 7.3085938 11.150391 C 7.1106599 11.222061 6.8960205 11.312721 6.6601562 11.417969 C 6.1884279 11.628464 5.6382127 11.898996 5.1054688 12.167969 C 4.0399809 12.705915 3.0488281 13.240234 3.0488281 13.240234 L 3.0546875 13.251953 C 2.4326139 13.593568 2 14.249289 2 15 L 2 36 C 2 36.783714 2.4699351 37.466299 3.1367188 37.792969 L 3.1328125 37.800781 C 3.1328125 37.800781 4.0513356 38.268979 5.0175781 38.755859 C 5.5006994 38.999299 5.9968919 39.247409 6.3964844 39.445312 C 6.7960769 39.643217 7.0192646 39.760213 7.25 39.853516 C 7.4806217 39.946957 7.7366742 40 8 40 C 8.3520389 40 8.6924996 39.903755 8.984375 39.738281 L 8.9863281 39.740234 C 8.9865234 39.740125 9.077902 39.680635 9.0898438 39.671875 C 9.1017848 39.663075 9.1083533 39.66007 9.1132812 39.65625 C 9.1231412 39.64865 9.1273745 39.643032 9.1328125 39.638672 C 9.1436885 39.629972 9.1538666 39.623221 9.1660156 39.613281 C 9.1903136 39.593391 9.2228089 39.567033 9.2636719 39.533203 C 9.3453989 39.465543 9.4619503 39.368886 9.609375 39.246094 C 9.9042245 39.000509 10.320665 38.651819 10.820312 38.234375 C 11.819608 37.399487 13.146933 36.289019 14.472656 35.179688 C 16.765386 33.261187 18.475547 31.828942 19.052734 31.345703 C 22.673837 35.276098 26.298155 39.209905 29.029297 42.171875 C 30.431404 43.692484 31.605065 44.964683 32.433594 45.861328 C 32.847858 46.309651 33.175989 46.664122 33.404297 46.910156 C 33.518451 47.033173 33.606565 47.129531 33.669922 47.197266 C 33.701602 47.231136 33.727957 47.256164 33.748047 47.277344 C 33.768137 47.298514 33.705268 47.248244 33.835938 47.365234 L 33.837891 47.367188 C 34.278658 47.759717 34.868088 48 35.5 48 C 35.870742 48 36.220975 47.911811 36.539062 47.763672 L 36.542969 47.771484 C 36.542969 47.771484 38.94805 46.527287 41.388672 45.261719 C 42.608983 44.628935 43.83808 43.990536 44.78125 43.5 C 45.252835 43.254732 45.65321 43.04533 45.945312 42.892578 C 46.237415 42.739826 46.354526 42.681966 46.488281 42.605469 C 47.392548 42.088102 48 41.107799 48 40 L 48 10 C 48 8.9718357 47.475826 8.0522335 46.677734 7.5136719 C 46.542033 7.421786 46.528131 7.4228766 46.433594 7.3710938 C 46.339057 7.3193108 46.215907 7.2534306 46.066406 7.1738281 C 45.767405 7.0146232 45.361831 6.8004611 44.884766 6.5507812 C 43.930635 6.0514216 42.690851 5.4070926 41.460938 4.7695312 C 39.001888 3.4948116 36.585512 2.248834 36.583984 2.2480469 C 36.583984 2.2480469 36.582031 2.2480469 36.582031 2.2480469 C 36.253185 2.0903793 35.883742 2 35.5 2 z M 35.5 4 C 35.609499 4 35.698099 4.029176 35.779297 4.0839844 C 35.91376 4.1749743 36 4.3191943 36 4.5 L 36 14.533203 L 24.708984 23.998047 C 24.121838 23.521433 24.118846 23.51924 23.527344 23.039062 C 22.419306 22.139551 21.556407 21.438992 20.474609 20.560547 C 21.080284 19.882553 23.971109 16.64526 27.478516 12.722656 C 29.407143 10.565724 31.338911 8.4056708 32.792969 6.78125 C 33.519998 5.9690396 34.128401 5.2918443 34.556641 4.8144531 C 34.770761 4.5757576 34.938328 4.3869875 35.054688 4.2578125 C 35.107258 4.1994465 35.146168 4.1557089 35.175781 4.1230469 C 35.262314 4.0478056 35.369277 4 35.5 4 z M 38 5.2324219 C 38.922499 5.708658 39.26028 5.8810153 40.541016 6.5449219 C 41.769728 7.1818606 43.009333 7.8272034 43.958984 8.3242188 C 44.43381 8.5727263 44.835794 8.7844237 45.126953 8.9394531 C 45.272533 9.0169681 45.390423 9.0799567 45.472656 9.125 C 45.554886 9.170043 45.652472 9.2348076 45.556641 9.1699219 L 45.558594 9.1699219 L 45.558594 9.171875 C 45.82446 9.3513164 46 9.6481643 46 10 L 46 40 C 46 40.380201 45.795873 40.696507 45.494141 40.869141 C 45.554901 40.834391 45.307186 40.969646 45.017578 41.121094 C 44.72797 41.272541 44.330259 41.479706 43.859375 41.724609 C 42.917607 42.214417 41.686736 42.853737 40.466797 43.486328 C 39.223798 44.130877 38.910725 44.292152 38 44.763672 L 38 5.2324219 z M 8.0273438 13.023438 C 8.0349728 13.029458 8.052793 13.044737 8.0625 13.052734 C 8.079846 13.067034 8.1016554 13.085485 8.1308594 13.109375 C 8.1892694 13.157165 8.2734909 13.225006 8.3808594 13.3125 C 8.5955963 13.487489 8.9044355 13.739482 9.296875 14.058594 C 10.081754 14.696817 11.195179 15.601544 12.527344 16.683594 C 15.191673 18.847693 18.732542 21.72208 22.267578 24.591797 C 29.142259 30.172612 35.626161 35.434911 36 35.738281 L 36 45.5 C 36 45.692926 35.89838 45.845862 35.748047 45.929688 C 35.746285 45.930599 35.678493 45.966404 35.677734 45.966797 C 35.622626 45.986454 35.564004 46 35.5 46 C 35.368245 46 35.262126 45.95386 35.173828 45.876953 C 35.160738 45.863063 35.150269 45.850818 35.130859 45.830078 C 35.070969 45.766048 34.982356 45.670834 34.869141 45.548828 C 34.642711 45.304812 34.316124 44.951705 33.902344 44.503906 C 33.074783 43.608309 31.901877 42.336766 30.5 40.816406 C 27.696246 37.775688 23.97428 33.737278 20.255859 29.701172 C 16.537439 25.665065 12.822516 21.631904 10.03125 18.603516 C 8.6356171 17.089321 7.4710883 15.826397 6.6523438 14.939453 C 6.298475 14.556108 6.0418574 14.279898 5.8261719 14.046875 C 5.9171422 14.000447 5.9132376 13.999888 6.0058594 13.953125 C 6.5228655 13.692098 7.0555254 13.431145 7.4746094 13.244141 C 7.6841514 13.150641 7.8679728 13.075519 7.9902344 13.03125 C 8.0059117 13.025573 8.0119865 13.027378 8.0273438 13.023438 z M 4 15.017578 C 4.056614 15.078398 4.1301917 15.157339 4.2304688 15.265625 C 4.45149 15.504298 4.7745773 15.851835 5.1835938 16.294922 C 5.6235836 16.771562 6.3777994 17.590299 7 18.265625 L 7 32.640625 L 4.0039062 35.994141 C 4.0019856 35.997293 4.0017683 36 4 36 L 4 15.017578 z M 36 17.142578 L 36 33.162109 C 34.932707 32.295986 30.961742 29.072459 26.291016 25.28125 L 36 17.142578 z M 9 20.435547 C 10.268134 21.811509 11.98519 23.676338 13.519531 25.341797 L 9 30.400391 L 9 20.435547 z M 14.880859 26.818359 C 15.867082 27.888898 16.674491 28.766923 17.695312 29.875 C 17.07318 30.395866 15.444605 31.75943 13.189453 33.646484 C 11.863926 34.755652 10.537579 35.864982 9.5390625 36.699219 C 9.0398041 37.116337 8.6233927 37.464678 8.3300781 37.708984 C 8.1834208 37.831137 8.0670278 37.926991 7.9882812 37.992188 C 7.9882812 37.992188 7.9863281 37.994141 7.9863281 37.994141 C 8.0179269 38.00611 7.6679239 37.842882 7.2832031 37.652344 C 6.8911706 37.458185 6.3988474 37.213013 5.9179688 36.970703 C 5.8808696 36.952009 5.8826194 36.952208 5.8457031 36.933594 L 14.880859 26.818359 z M 8.0097656 37.994141 L 8.4707031 38.818359 L 7.9980469 38.001953 L 8 38 C 8.0014421 37.999069 8.0097839 37.99413 8.0097656 37.994141 z"/></svg>

<svg fill="#fff" xmlns="http://www.w3.org/2000/svg" width="50" height="50"><path d="M35.5 2a2.5 2.5 0 0 0-1.668.639 4.685 4.685 0 0 0-.125.127l-.137.154-.504.559-1.763 1.97c-1.455 1.625-3.386 3.785-5.315 5.942l-7.068 7.906-5.13-4.166-3.23-2.623-.915-.746-.247-.201-.056-.045-.002-.002h-.002A2.011 2.011 0 0 0 8 11c-.389 0-.493.079-.691.15a9.876 9.876 0 0 0-.649.268c-.472.21-1.022.481-1.555.75-1.065.538-2.056 1.072-2.056 1.072l.006.012A2.007 2.007 0 0 0 2 15v21c0 .784.47 1.466 1.137 1.793l-.004.008s.918.468 1.885.955c.483.243.979.491 1.378.69.4.197.623.314.854.408.23.093.487.146.75.146.352 0 .692-.096.984-.262l.002.002.104-.068.023-.016c.01-.007.014-.013.02-.017l.033-.026.098-.08.345-.287a6851.457 6851.457 0 0 0 4.863-4.066l4.58-3.834A39683.096 39683.096 0 0 0 32.435 45.86l.97 1.05.266.286.078.08c.02.022-.043-.029.088.088l.002.002c.44.393 1.03.633 1.662.633.37 0 .721-.088 1.04-.236l.003.007s2.405-1.244 4.846-2.51c1.22-.632 2.45-1.27 3.392-1.761.472-.245.872-.455 1.164-.607.292-.153.41-.211.543-.288A3.006 3.006 0 0 0 48 40V10a3.003 3.003 0 0 0-1.322-2.486c-.136-.092-.15-.091-.244-.143a194.527 194.527 0 0 0-1.549-.82A1057.4 1057.4 0 0 0 41.46 4.77C39 3.495 36.586 2.249 36.584 2.248h-.002A2.506 2.506 0 0 0 35.5 2zm0 2c.11 0 .198.03.28.084A.49.49 0 0 1 36 4.5v10.033l-11.291 9.465-1.182-.959-3.052-2.478A16164.07 16164.07 0 0 1 32.793 6.78l1.764-1.967c.214-.238.381-.427.498-.556l.12-.135A.482.482 0 0 1 35.5 4zM38 5.232c.922.477 1.26.649 2.541 1.313 1.229.637 2.468 1.282 3.418 1.78a198.057 198.057 0 0 1 1.514.8c.082.045.18.11.084.045h.002v.002c.265.18.441.476.441.828v30c0 .38-.204.697-.506.87.06-.036-.187.1-.476.251l-1.159.604c-.941.49-2.172 1.129-3.392 1.761L38 44.764V5.232zM8.027 13.023l.036.03.068.056.25.204.916.746 3.23 2.625 9.74 7.908L36 35.738V45.5a.482.482 0 0 1-.252.43l-.07.037A.524.524 0 0 1 35.5 46a.48.48 0 0 1-.326-.123l-.043-.047-.262-.281-.967-1.045-3.402-3.688c-2.804-3.04-6.526-7.079-10.244-11.115-3.719-4.036-7.433-8.07-10.225-11.097-1.395-1.515-2.56-2.778-3.379-3.665l-.826-.892c.091-.047.087-.047.18-.094a36.69 36.69 0 0 1 1.469-.709c.21-.093.393-.168.515-.213.016-.005.022-.004.037-.008zM4 15.018l.23.248c.221.238.545.586.954 1.029L7 18.265v14.376l-2.996 3.353C4.002 35.997 4.002 36 4 36V15.018zm32 2.125v16.02l-9.709-7.882L36 17.143zM9 20.436l4.52 4.906L9 30.4v-9.964zm5.88 6.382c.987 1.07 1.794 1.949 2.815 3.057l-4.506 3.771c-1.325 1.11-2.651 2.219-3.65 3.053L8.33 37.71l-.342.283-.002.002c.032.012-.318-.151-.703-.342-.392-.194-.884-.439-1.365-.681l-.072-.037 9.035-10.116zM8.01 37.994l.46.824-.472-.816L8 38l.01-.006z"/></svg>
